src/topics/icons/hhvm.svg

<svg height="382" preserveAspectRatio="xMidYMid" viewBox="0 0 256 382" width="256" xmlns="http://www.w3.org/2000/svg"><path d="m131.015 127.065 117.088.003-117.088 115.396z" fill="#fff"/><g fill="#878787"><path d="m.002 257.489h116.672l-116.672 118.466z"/><path d="m.001 120.581 121.947-119.581.061 121.501-122.008 121.684z"/><path d="m256.001 132.733v124.388l-124.981 124.067v-124.356z"/><path d="m255.957 117.869-117.087-.003 117.087-117.143z"/></g><path d="m121.909 247.908-113.513-.003 113.513-113.585z" fill="#f7852f"/></svg>

<?xml version="1.0" encoding="UTF-8" standalone="no"?>
<svg width="256px" height="382px" viewBox="0 0 256 382" version="1.1" xmlns="http://www.w3.org/2000/svg" xmlns:xlink="http://www.w3.org/1999/xlink" preserveAspectRatio="xMidYMid">
	<g>
		<path d="M131.015,127.065 L248.103,127.068 L131.015,242.464 L131.015,127.065" fill="#FFFFFF"></path>
		<path d="M0.002,257.489 L116.674,257.489 L0.002,375.955 L0.002,257.489" fill="#878787"></path>
		<path d="M0.001,120.581 L121.948,1 L122.009,122.501 L0.001,244.185 L0.001,120.581" fill="#878787"></path>
		<path d="M256.001,132.733 L256.001,257.121 L131.02,381.188 L131.02,256.832 L256.001,132.733 L256.001,132.733 Z" fill="#878787"></path>
		<path d="M255.957,117.869 L138.87,117.866 L255.957,0.723 L255.957,117.869" fill="#878787"></path>
		<path d="M121.909,247.908 L8.396,247.905 L121.909,134.32 L121.909,247.908" fill="#F7852F"></path>
	</g>
</svg>
